packages/react/src/components/base/Icon/assets/icon-snow-plow.svg

<svg width="24" height="24" viewBox="0 0 24 24" xmlns="http://www.w3.org/2000/svg" fill="currentColor"> <path d="M22.5511 20.9401C21.3989 20.9401 21.1561 19.8751 21.1561 18.9807V12.6591C21.1561 12.0685 21.278 11.5688 21.4992 11.2529C21.7092 10.9529 22.0074 10.8123 22.4386 10.8123C22.8699 10.8123 23.1886 10.4766 23.1886 10.0623C23.1886 9.64789 22.853 9.31227 22.4386 9.31227C20.723 9.31227 19.657 10.5948 19.657 12.6582V14.7301H18.6624L18.6399 13.9566C18.6352 11.8257 17.3264 10.5535 15.1374 10.5535H12.353L9.92486 4.80945C9.66986 4.18508 9.06986 3.78289 8.3958 3.78289H2.97986C2.92923 3.78289 2.87955 3.78852 2.83267 3.79789C2.78486 3.78852 2.73517 3.78289 2.68548 3.78289C2.27111 3.78289 1.93548 4.11852 1.93548 4.53289V10.5535H1.44986C1.03548 10.5535 0.69986 10.8891 0.69986 11.3035C0.69986 11.7179 1.03548 12.0535 1.44986 12.0535H15.1374C15.997 12.0535 17.1399 12.2523 17.1399 13.9679C17.1399 13.9754 17.1399 13.9829 17.1399 13.9904L17.287 18.9863C17.2833 19.0679 17.2167 19.1326 17.1342 19.1326H14.933C14.7558 17.1685 13.1002 15.6235 11.0902 15.6235C9.08017 15.6235 7.42548 17.1685 7.24736 19.1326H1.54267C1.1283 19.1326 0.792672 19.4682 0.792672 19.8826C0.792672 20.297 1.1283 20.6326 1.54267 20.6326H7.40486C7.89517 22.201 9.36142 23.342 11.0892 23.342C12.817 23.342 14.2824 22.201 14.7736 20.6326H17.1333C18.0445 20.6326 18.7861 19.891 18.7861 18.9798C18.7861 18.9723 18.7861 18.9648 18.7861 18.9573L18.7055 16.2301H19.6561V18.9798C19.6561 21.0807 20.7924 22.4391 22.5511 22.4391C22.9655 22.4391 23.3011 22.1035 23.3011 21.6891C23.3011 21.2748 22.9655 20.9401 22.5511 20.9401ZM3.43455 10.5554V5.28477H8.39486C8.45767 5.28477 8.51298 5.32227 8.53642 5.38039L8.54111 5.3907L10.7245 10.5545L3.43455 10.5554ZM11.0892 21.8429C9.78798 21.8429 8.73048 20.7845 8.73048 19.4841C8.73048 18.1838 9.78892 17.1254 11.0892 17.1254C12.3895 17.1254 13.448 18.1838 13.448 19.4841C13.448 20.7845 12.3895 21.8429 11.0892 21.8429Z"/> <path d="M14.4558 5.94477L13.2999 5.6607C12.8977 5.56133 12.4917 5.80789 12.3924 6.21008C12.2939 6.61227 12.5395 7.0182 12.9417 7.11758L13.6467 7.29102L13.4639 7.97445C13.357 8.37477 13.5942 8.78539 13.9945 8.8932C14.0592 8.91102 14.1249 8.91852 14.1886 8.91852C14.5195 8.91852 14.8233 8.69727 14.9124 8.36258L15.2133 7.23945L16.2849 6.6207V7.85727L15.4374 8.70477C15.1449 8.99726 15.1449 9.47258 15.4374 9.76508C15.7299 10.0576 16.2052 10.0576 16.4977 9.76508L17.0349 9.22789L17.572 9.76508C17.7183 9.91133 17.9105 9.98445 18.1027 9.98445C18.2949 9.98445 18.4861 9.91133 18.6333 9.76508C18.9258 9.47258 18.9258 8.99726 18.6333 8.70477L17.7858 7.85727V6.6207L18.8574 7.23945L19.1583 8.36258C19.2483 8.6982 19.5511 8.91852 19.882 8.91852C19.9458 8.91852 20.0114 8.91008 20.0761 8.8932C20.4764 8.78633 20.7136 8.37477 20.6067 7.97445L20.4239 7.29102L21.1289 7.11758C21.5311 7.01914 21.7777 6.61227 21.6783 6.21008C21.5799 5.80789 21.1739 5.56227 20.7708 5.6607L19.6149 5.94477L18.5358 5.32133L19.6149 4.69789L20.7708 4.98195C20.8308 4.99695 20.8908 5.00352 20.9499 5.00352C21.2874 5.00352 21.5939 4.77477 21.6774 4.43258C21.7758 4.03039 21.5302 3.62445 21.128 3.52508L20.423 3.35164L20.6058 2.6682C20.7127 2.26789 20.4755 1.85727 20.0752 1.74945C19.6749 1.64164 19.2642 1.87977 19.1564 2.28008L18.8555 3.4032L17.7839 4.02195V2.78539L18.6314 1.93789C18.9239 1.64539 18.9239 1.17008 18.6314 0.877578C18.3389 0.585078 17.8636 0.585078 17.5711 0.877578L17.0339 1.41477L16.4967 0.877578C16.2042 0.585078 15.7289 0.585078 15.4364 0.877578C15.1439 1.17008 15.1439 1.64539 15.4364 1.93789L16.2839 2.78539V4.02195L15.2124 3.4032L14.9114 2.28008C14.8045 1.87977 14.393 1.64258 13.9927 1.74945C13.5924 1.85633 13.3552 2.26789 13.462 2.6682L13.6449 3.35164L12.9399 3.52508C12.5377 3.62352 12.2911 4.03039 12.3905 4.43258C12.4749 4.77477 12.7814 5.00352 13.118 5.00352C13.177 5.00352 13.237 4.99602 13.297 4.98195L14.453 4.69789L15.532 5.32133L14.453 5.94477H14.4558Z"/> <path d="M5.50642 14.9223C5.9208 14.9223 6.25642 14.5866 6.25642 14.1723C6.25642 13.7579 5.9208 13.4223 5.50642 13.4223H3.13642C2.72205 13.4223 2.38642 13.7579 2.38642 14.1723C2.38642 14.5866 2.72205 14.9223 3.13642 14.9223H5.50642Z"/> </svg>

<svg viewBox="0 0 24 24" xmlns="http://www.w3.org/2000/svg" aria-hidden="true" fill="currentColor"><path d="M22.551 20.94c-1.152 0-1.395-1.065-1.395-1.96v-6.32c0-.591.122-1.091.343-1.407.21-.3.508-.44.94-.44a.74.74 0 0 0 .75-.75.75.75 0 0 0-.75-.75c-1.716 0-2.782 1.282-2.782 3.345v2.072h-.995l-.022-.773c-.005-2.131-1.314-3.404-3.503-3.404h-2.784L9.925 4.81a1.645 1.645 0 0 0-1.53-1.026H2.98q-.076 0-.147.015a.75.75 0 0 0-.897.735v6.02H1.45a.75.75 0 1 0 0 1.5h13.687c.86 0 2.003.2 2.003 1.915v.022l.147 4.996a.153.153 0 0 1-.153.147h-2.201a3.864 3.864 0 0 0-3.843-3.51 3.865 3.865 0 0 0-3.843 3.51H1.543a.75.75 0 1 0 0 1.5h5.862a3.87 3.87 0 0 0 3.684 2.709 3.87 3.87 0 0 0 3.685-2.71h2.36c.91 0 1.652-.741 1.652-1.652v-.023l-.08-2.727h.95v2.75c0 2.1 1.136 3.46 2.895 3.46a.75.75 0 1 0 0-1.5M3.435 10.555v-5.27h4.96c.063 0 .118.037.141.095l.005.01 2.184 5.165zm7.654 11.288a2.36 2.36 0 0 1-2.359-2.359c0-1.3 1.059-2.359 2.36-2.359s2.358 1.059 2.358 2.36-1.059 2.358-2.359 2.358"/><path d="M14.456 5.945 13.3 5.66a.75.75 0 1 0-.358 1.457l.705.173-.183.683a.75.75 0 0 0 1.448.389l.301-1.124 1.072-.618v1.236l-.848.848a.75.75 0 0 0 1.06 1.06l.538-.537.537.537a.75.75 0 0 0 1.061 0 .75.75 0 0 0 0-1.06l-.847-.848V6.621l1.071.618.301 1.124a.75.75 0 1 0 1.449-.389l-.183-.683.705-.173a.75.75 0 1 0-.358-1.457l-1.156.284-1.08-.624 1.08-.623 1.156.284q.09.022.179.022a.749.749 0 0 0 .178-1.479l-.705-.173.183-.684a.75.75 0 0 0-1.45-.388l-.3 1.123-1.072.619V2.785l.847-.847a.75.75 0 0 0-1.06-1.06l-.537.537-.537-.537a.75.75 0 0 0-1.06 1.06l.847.847v1.237l-1.072-.619-.3-1.123a.75.75 0 1 0-1.45.388l.183.684-.705.173a.75.75 0 0 0 .357 1.457l1.156-.284 1.079.623-1.079.624zm-8.95 8.977a.75.75 0 1 0 0-1.5h-2.37a.75.75 0 1 0 0 1.5z"/></svg>
